remix/Buildings/home-fill.svg

<svg viewBox="0 0 24 24" fill="currentColor" xmlns="http://www.w3.org/2000/svg"><path d="M21 20C21 20.5523 20.5523 21 20 21H4C3.44772 21 3 20.5523 3 20V9.48907C3 9.18048 3.14247 8.88917 3.38606 8.69972L11.3861 2.47749C11.7472 2.19663 12.2528 2.19663 12.6139 2.47749L20.6139 8.69972C20.8575 8.88917 21 9.18048 21 9.48907V20Z"/></svg>

<svg viewBox="0 0 24 24" xmlns="http://www.w3.org/2000/svg"><path fill="none" d="M0 0h24v24H0Z"/><path d="M21 20v0c0 .55-.45 1-1 1H4v0c-.56 0-1-.45-1-1V9.49v0c-.01-.31.14-.61.38-.79l8-6.222v0c.36-.29.86-.29 1.22-.001l8 6.222v0c.24.18.38.48.38.79v10.51Z"/></svg>
